!!!OTL: 114. Heidenroeslein.
!!!COM: F. Reichardt
!!!ODT: 1793
!!!ARE: Europa, Mitteleuropa, Deutschland
!!!SCT: B0114
!!!TXL: @@DE
!!!YEM: Copyright 1995, estate of Helmut Schaffrath.
**kern	**text
*ICvox	*
*Ivox	*
*M2/4	*
*clefG2	*
*k[b-]	*
*F:	*
=1	=1
!LO:TX:a:t=Lebhaft.	!
{8f	Sah
8f	ein
8f	Knab
8f	ein
=2	=2
(16aqq	.
8g)	Rös-
8f	-lein
4f}	ſtehn,
=3	=3
{8cc	Rös-
8cc	-lein
8a	auf
8f	der
=4	=4
4b-	Hei-
8a	-den,
8r}	.
=5	=5
{8f	war
8f	ſo
8f	jung
8f	und
=6	=6
(16aqq	.
8g)	mor-
8f	-gen-
4f}	-ſchön,
=7	=7
{8a	lief
8a	er
8a	ſchnell
8a	es
=8	=8
(16ccqq/	.
8b-)	nah
8a	ʒu-
4a}	-ſehn,
=9	=9
{8cc	ſabs
8cc	mit
8a	vie-
8f	-len
=10	=10
4b-	Freu-
8a	-den.
8r}	.
=11	=11
{8cc	Rös-
8a	-lein,
8cc	Rös-
8a	-lein,
=12	=12
8ff	Rös-
8cc	-lein
4cc}	roth,
=13	=13
{8dd	Rös-
8cc	-lein
8b-	auf
8a	der
=14	=14
4g	Hei-
8f	-den.
8r}	.
==	==
!!!AGN: Ballade, Romanze
!!!GTL: Balladen und Romanzen
!!!ONB: ESAC (Essen Associative Code) Database: BOEHME
!!!AMT: simple duple
!!!AIN: vox
!!!EED: Helmut Schaffrath
!!!EEV: 1.0
!!@@COMMENT:"Das Lied in der Faſſung unter A. iſt ʒuerſt gedruckt in Herders Schrift: "Von deutſcher
!!Art und Kunſt", Hamb. 1778 S. 57, dort mitgetheilt von Herder in ſeinem Aufſatʒe: "Ausʒug uas
!!einem Briefwechſel über Oſſian und die Lieder alter Völker". Dort ſteht es als ein Fabelliedchen",
!!ohne Goethe's Namen und noch S. 34 daſelbſt die Angabe, daß es aus Volksmund aufgenommen ſei."
!!@@END:
!!Text: J. G. Herder
!!!URL-scan: https://archive.org/details/BoehmeVtLieder1895/page/n119/mode/2up
!!!ENC: Anna Maria Matuszewska
!!!EEV: 2024/17/06
*-	*-
